X: 6525
T: Catalina
R: waltz
M: 3/4
K: Dmajor
|:D4 F2|E4 FG|A4 F2|D2 d3 c|B4 G2|FG A3 B|AG F2 G2|E6|
A3 BAF|G2 F2 E2|D2 d3 A|B2 d4|A3 BAB|A2 F2 G2|E4 D2|D6:|
A,2 G3 F|E6|A,2 G3 F|G2 F2 E2|D2 A3 G|F6|D3 CDE|F2 G2 A2|
B2 d3 c|B6|B2 d3 e|d2 c2 B2|A2 d3 B|A3 BAF|A2 d3 B|A2 F2 G2|
A,2 G3 F|E6|A,2 G3 F|G2 F2 E2|F4 EF|G4 FG|A3 FAB|=c2 B2 A2|
B2 d3 c|B6|B2 d3 e|d2 c2 B2|A2 d3 B|A3 BAF|A2 d3 B|A2 F2 G2|
A,2 G3 F|E6|A,2 G3 F|G2 F2 E2|D6|

